X:3
T:Pavan for five viols
P:Altus
%%measurenb 0
%%scale 0.8
%%squarebreve
C:Thomas Weelkes
M:C|
L:1/4
K:C clef=treble
D4 E3 D| E ^F   G4 F E | D2  B4  A G | ^F3 G A2 c2-|c2 B A ^G2 A2-|
A2 ^G2 A2 "\="G F | E ^F G4 "#"F2 |G4 G4 :: E4 C2 E2-|E F G3 F G2 |F2 A2 G4|
G3 F E2 G G/F/ |E/D/ C G G/F/ E/D/ C2 E |E/D/C/B,/ A,2 A,>B, ^C2 | D A A/G/F/E/ D2 A2 |
A4 A3 G| ^F4 F4:: z D E D E>F G2 | E>F G2 E>F ED-|D ^C D E F>G A2 |
F>G A2 F>G F E | E A>G E ^F3 G | A d>c B A G2 ^F |[M:6/2] G4 z C D G>F E D G | G4 G8:|]

